X: 10
T: Tianhe shuige liangtou qi
L: 1/8
M: 2/4
K: D
e> ee2 [I:setbarnb 1]| 
B B/ d/A2 | 
e a A A/ F/ | 
E4 | 
e> ee2 | 
B d e e | 
e a d e | 
BA3 |]

@@@ Tune index: 8884
